X:1
T:Title
%%score { ( 1 3 ) | ( 2 4 ) }
L:1/8
Q:1/4=100
M:4/4
K:F
V:1 treble nm="Grand Piano"
V:3 treble 
V:2 bass 
V:4 bass 
V:1
 c2 =Bc A2 [D_B][DG] | [CF]2 [CF][CG] [CA]4 | [CEG]2 [DFG][DFA] [DFB]2 [DFA][CEG] | %3
w: B.~E.~Warren * * * * *|||
 [F,DF]2 [F,D][K:treble][A,DF] [CEG]4 | [A,CF]2 [A,DF][CEG] A2 cc | d2 cA c4 | %6
w: |||
 [Af]2 [Ae][EAd] [FAc]2 [FBd][DGB] | [CFA]2 [CGB][B,EG] [F,A,CF]4 | %8
w: ||
 [A,CF]2 [A,CF][A,DF] [B,EG]2 [DFG][DFG] | [CF]2 [CF][CEG] [CFA]4 | z4 z2 .[DB]2 | %11
w: |||
 .[CFc]2 [Ec][Gc] c4 | d2 de f2 ed | [Ac]2 [Ac]A c4 | %14
w: |||
 F2 FF [DF]2 [DF][^CG][Q:1/4=99][Q:1/4=97][Q:1/4=96][Q:1/4=94][Q:1/4=93][Q:1/4=91][Q:1/4=90][Q:1/4=88][Q:1/4=87][Q:1/4=85] | %15
w: |
 A2 AG [A,CF]4[Q:1/4=84][Q:1/4=82][Q:1/4=81][Q:1/4=79][Q:1/4=78][Q:1/4=76] |] %16
w: |
V:2
 [F,A,F]2 [F,_A,F][F,=A,F] [F,C]2 [B,,F,][B,,F,] | [A,,F,]2 [A,,F,][C,E,] F,4 | %2
 C,2 B,,A,, G,,2 G,,G,, | D,2 D,D, C,4 | F,2 D,C, [F,CF]2 [F,A,F][F,A,F] | %5
 [F,B,F]2 [F,A,F][F,CF] [F,A,F]4 | [F,C]2 [F,D]F, F,2 B,,B,, | C,2 C,C, F,,4 | %8
 F,2 _E,D, C,2 B,,B,, | A,,2 A,,C, F,4 | z4 z2 G,2 | z A,[C,G,][C,B,][K:treble] [F,A,F]4 | %12
 [B,F]2 [B,F][B,CF] [B,DF]2 [B,DF][B,EB] | [F,F]2 [F,F][F,CF] [F,A,F]4 | %14
 [F,A,]2 [F,A,_E][F,A,E] [B,,B,]2 [B,,B,][B,,F,] | [C,F,C]2 [C,F,C][C,B,C] [F,,F,]4 |] %16
V:3
 x8 | x8 | x8 | x3[K:treble] x5 | x8 | x8 | x8 | x8 | x8 | x8 | [CFA]2 [CFA][CFA] [DFA]2 F-[FG] | %11
 x8 | x8 | x8 | x8 | x8 |] %16
V:4
 x8 | x8 | x8 | x8 | x8 | x8 | x8 | x8 | x8 | x8 | F,2 F,F, D,2 z =B, | C,2 z2[K:treble] z4 | x8 | %13
 x8 | x8 | x8 |] %16

